<?xml version="1.0" encoding="UTF-8"?>
<map version="1.0.0" orientation="orthogonal" renderorder="right-down" width="50" height="10" tilewidth="16" tileheight="16" nextobjectid="57">
 <tileset firstgid="1" name="tail1" tilewidth="16" tileheight="16" tilecount="702" columns="39">
  <image source="tileset.png" trans="6d9fb9" width="630" height="302"/>
 </tileset>
 <layer name="Тайлы" width="50" height="10">
  <data>
   <tile gid="625"/>
   <tile gid="625"/>
   <tile gid="625"/>
   <tile gid="625"/>
   <tile gid="625"/>
   <tile gid="625"/>
   <tile gid="625"/>
   <tile gid="625"/>
   <tile gid="625"/>
   <tile gid="625"/>
   <tile gid="625"/>
   <tile gid="625"/>
   <tile gid="625"/>
   <tile gid="625"/>
   <tile gid="625"/>
   <tile gid="625"/>
   <tile gid="625"/>
   <tile gid="625"/>
   <tile gid="625"/>
   <tile gid="625"/>
   <tile gid="625"/>
   <tile gid="625"/>
   <tile gid="625"/>
   <tile gid="625"/>
   <tile gid="625"/>
   <tile gid="625"/>
   <tile gid="625"/>
   <tile gid="625"/>
   <tile gid="625"/>
   <tile gid="625"/>
   <tile gid="625"/>
   <tile gid="625"/>
   <tile gid="625"/>
   <tile gid="625"/>
   <tile gid="625"/>
   <tile gid="28"/>
   <tile gid="28"/>
   <tile gid="28"/>
   <tile gid="28"/>
   <tile gid="28"/>
   <tile gid="28"/>
   <tile gid="28"/>
   <tile gid="28"/>
   <tile gid="28"/>
   <tile gid="28"/>
   <tile gid="28"/>
   <tile gid="28"/>
   <tile gid="28"/>
   <tile gid="28"/>
   <tile gid="28"/>
   <tile gid="625"/>
   <tile gid="625"/>
   <tile gid="625"/>
   <tile gid="625"/>
   <tile gid="625"/>
   <tile gid="625"/>
   <tile gid="625"/>
   <tile gid="625"/>
   <tile gid="625"/>
   <tile gid="625"/>
   <tile gid="625"/>
   <tile gid="625"/>
   <tile gid="625"/>
   <tile gid="0"/>
   <tile gid="625"/>
   <tile gid="625"/>
   <tile gid="625"/>
   <tile gid="625"/>
   <tile gid="625"/>
   <tile gid="625"/>
   <tile gid="625"/>
   <tile gid="625"/>
   <tile gid="625"/>
   <tile gid="625"/>
   <tile gid="625"/>
   <tile gid="625"/>
   <tile gid="625"/>
   <tile gid="625"/>
   <tile gid="625"/>
   <tile gid="625"/>
   <tile gid="625"/>
   <tile gid="625"/>
   <tile gid="625"/>
   <tile gid="625"/>
   <tile gid="625"/>
   <tile gid="486"/>
   <tile gid="487"/>
   <tile gid="487"/>
   <tile gid="487"/>
   <tile gid="487"/>
   <tile gid="487"/>
   <tile gid="487"/>
   <tile gid="487"/>
   <tile gid="487"/>
   <tile gid="487"/>
   <tile gid="487"/>
   <tile gid="487"/>
   <tile gid="487"/>
   <tile gid="487"/>
   <tile gid="488"/>
   <tile gid="625"/>
   <tile gid="625"/>
   <tile gid="625"/>
   <tile gid="625"/>
   <tile gid="625"/>
   <tile gid="625"/>
   <tile gid="625"/>
   <tile gid="0"/>
   <tile gid="0"/>
   <tile gid="0"/>
   <tile gid="625"/>
   <tile gid="0"/>
   <tile gid="0"/>
   <tile gid="0"/>
   <tile gid="625"/>
   <tile gid="625"/>
   <tile gid="625"/>
   <tile gid="625"/>
   <tile gid="625"/>
   <tile gid="625"/>
   <tile gid="625"/>
   <tile gid="625"/>
   <tile gid="625"/>
   <tile gid="625"/>
   <tile gid="625"/>
   <tile gid="625"/>
   <tile gid="625"/>
   <tile gid="625"/>
   <tile gid="625"/>
   <tile gid="625"/>
   <tile gid="625"/>
   <tile gid="625"/>
   <tile gid="625"/>
   <tile gid="625"/>
   <tile gid="625"/>
   <tile gid="525"/>
   <tile gid="45"/>
   <tile gid="45"/>
   <tile gid="45"/>
   <tile gid="45"/>
   <tile gid="45"/>
   <tile gid="45"/>
   <tile gid="45"/>
   <tile gid="45"/>
   <tile gid="45"/>
   <tile gid="45"/>
   <tile gid="45"/>
   <tile gid="45"/>
   <tile gid="45"/>
   <tile gid="527"/>
   <tile gid="625"/>
   <tile gid="100"/>
   <tile gid="625"/>
   <tile gid="625"/>
   <tile gid="625"/>
   <tile gid="625"/>
   <tile gid="625"/>
   <tile gid="625"/>
   <tile gid="625"/>
   <tile gid="625"/>
   <tile gid="625"/>
   <tile gid="0"/>
   <tile gid="0"/>
   <tile gid="0"/>
   <tile gid="625"/>
   <tile gid="625"/>
   <tile gid="625"/>
   <tile gid="625"/>
   <tile gid="625"/>
   <tile gid="625"/>
   <tile gid="625"/>
   <tile gid="625"/>
   <tile gid="625"/>
   <tile gid="625"/>
   <tile gid="625"/>
   <tile gid="625"/>
   <tile gid="625"/>
   <tile gid="625"/>
   <tile gid="625"/>
   <tile gid="625"/>
   <tile gid="625"/>
   <tile gid="625"/>
   <tile gid="625"/>
   <tile gid="625"/>
   <tile gid="625"/>
   <tile gid="525"/>
   <tile gid="45"/>
   <tile gid="45"/>
   <tile gid="45"/>
   <tile gid="45"/>
   <tile gid="45"/>
   <tile gid="45"/>
   <tile gid="45"/>
   <tile gid="45"/>
   <tile gid="45"/>
   <tile gid="45"/>
   <tile gid="45"/>
   <tile gid="45"/>
   <tile gid="45"/>
   <tile gid="527"/>
   <tile gid="625"/>
   <tile gid="175"/>
   <tile gid="176"/>
   <tile gid="177"/>
   <tile gid="625"/>
   <tile gid="625"/>
   <tile gid="625"/>
   <tile gid="625"/>
   <tile gid="331"/>
   <tile gid="625"/>
   <tile gid="625"/>
   <tile gid="0"/>
   <tile gid="0"/>
   <tile gid="0"/>
   <tile gid="625"/>
   <tile gid="625"/>
   <tile gid="625"/>
   <tile gid="625"/>
   <tile gid="625"/>
   <tile gid="625"/>
   <tile gid="625"/>
   <tile gid="625"/>
   <tile gid="625"/>
   <tile gid="625"/>
   <tile gid="625"/>
   <tile gid="625"/>
   <tile gid="625"/>
   <tile gid="625"/>
   <tile gid="625"/>
   <tile gid="625"/>
   <tile gid="625"/>
   <tile gid="625"/>
   <tile gid="625"/>
   <tile gid="625"/>
   <tile gid="625"/>
   <tile gid="525"/>
   <tile gid="45"/>
   <tile gid="45"/>
   <tile gid="45"/>
   <tile gid="45"/>
   <tile gid="45"/>
   <tile gid="45"/>
   <tile gid="45"/>
   <tile gid="45"/>
   <tile gid="45"/>
   <tile gid="45"/>
   <tile gid="45"/>
   <tile gid="45"/>
   <tile gid="45"/>
   <tile gid="527"/>
   <tile gid="625"/>
   <tile gid="625"/>
   <tile gid="625"/>
   <tile gid="625"/>
   <tile gid="625"/>
   <tile gid="625"/>
   <tile gid="625"/>
   <tile gid="625"/>
   <tile gid="370"/>
   <tile gid="625"/>
   <tile gid="625"/>
   <tile gid="625"/>
   <tile gid="625"/>
   <tile gid="625"/>
   <tile gid="625"/>
   <tile gid="625"/>
   <tile gid="625"/>
   <tile gid="625"/>
   <tile gid="625"/>
   <tile gid="625"/>
   <tile gid="625"/>
   <tile gid="625"/>
   <tile gid="625"/>
   <tile gid="625"/>
   <tile gid="625"/>
   <tile gid="625"/>
   <tile gid="625"/>
   <tile gid="625"/>
   <tile gid="0"/>
   <tile gid="625"/>
   <tile gid="625"/>
   <tile gid="625"/>
   <tile gid="625"/>
   <tile gid="625"/>
   <tile gid="625"/>
   <tile gid="525"/>
   <tile gid="45"/>
   <tile gid="45"/>
   <tile gid="45"/>
   <tile gid="45"/>
   <tile gid="45"/>
   <tile gid="45"/>
   <tile gid="45"/>
   <tile gid="45"/>
   <tile gid="45"/>
   <tile gid="45"/>
   <tile gid="45"/>
   <tile gid="45"/>
   <tile gid="45"/>
   <tile gid="527"/>
   <tile gid="625"/>
   <tile gid="625"/>
   <tile gid="625"/>
   <tile gid="625"/>
   <tile gid="625"/>
   <tile gid="625"/>
   <tile gid="175"/>
   <tile gid="176"/>
   <tile gid="177"/>
   <tile gid="625"/>
   <tile gid="625"/>
   <tile gid="293"/>
   <tile gid="625"/>
   <tile gid="625"/>
   <tile gid="625"/>
   <tile gid="625"/>
   <tile gid="625"/>
   <tile gid="625"/>
   <tile gid="625"/>
   <tile gid="625"/>
   <tile gid="323"/>
   <tile gid="324"/>
   <tile gid="625"/>
   <tile gid="625"/>
   <tile gid="625"/>
   <tile gid="625"/>
   <tile gid="625"/>
   <tile gid="625"/>
   <tile gid="0"/>
   <tile gid="625"/>
   <tile gid="625"/>
   <tile gid="625"/>
   <tile gid="625"/>
   <tile gid="625"/>
   <tile gid="625"/>
   <tile gid="525"/>
   <tile gid="45"/>
   <tile gid="45"/>
   <tile gid="45"/>
   <tile gid="45"/>
   <tile gid="45"/>
   <tile gid="45"/>
   <tile gid="45"/>
   <tile gid="45"/>
   <tile gid="45"/>
   <tile gid="45"/>
   <tile gid="603"/>
   <tile gid="604"/>
   <tile gid="605"/>
   <tile gid="527"/>
   <tile gid="625"/>
   <tile gid="625"/>
   <tile gid="625"/>
   <tile gid="625"/>
   <tile gid="625"/>
   <tile gid="625"/>
   <tile gid="625"/>
   <tile gid="625"/>
   <tile gid="625"/>
   <tile gid="625"/>
   <tile gid="625"/>
   <tile gid="332"/>
   <tile gid="625"/>
   <tile gid="625"/>
   <tile gid="625"/>
   <tile gid="14"/>
   <tile gid="12"/>
   <tile gid="15"/>
   <tile gid="625"/>
   <tile gid="362"/>
   <tile gid="403"/>
   <tile gid="404"/>
   <tile gid="625"/>
   <tile gid="331"/>
   <tile gid="625"/>
   <tile gid="625"/>
   <tile gid="625"/>
   <tile gid="625"/>
   <tile gid="625"/>
   <tile gid="625"/>
   <tile gid="625"/>
   <tile gid="625"/>
   <tile gid="625"/>
   <tile gid="625"/>
   <tile gid="625"/>
   <tile gid="625"/>
   <tile gid="45"/>
   <tile gid="45"/>
   <tile gid="45"/>
   <tile gid="45"/>
   <tile gid="45"/>
   <tile gid="45"/>
   <tile gid="45"/>
   <tile gid="45"/>
   <tile gid="45"/>
   <tile gid="45"/>
   <tile gid="642"/>
   <tile gid="643"/>
   <tile gid="644"/>
   <tile gid="527"/>
   <tile gid="625"/>
   <tile gid="625"/>
   <tile gid="625"/>
   <tile gid="625"/>
   <tile gid="625"/>
   <tile gid="141"/>
   <tile gid="625"/>
   <tile gid="625"/>
   <tile gid="103"/>
   <tile gid="625"/>
   <tile gid="625"/>
   <tile gid="371"/>
   <tile gid="625"/>
   <tile gid="625"/>
   <tile gid="625"/>
   <tile gid="53"/>
   <tile gid="51"/>
   <tile gid="54"/>
   <tile gid="625"/>
   <tile gid="401"/>
   <tile gid="403"/>
   <tile gid="404"/>
   <tile gid="625"/>
   <tile gid="370"/>
   <tile gid="625"/>
   <tile gid="625"/>
   <tile gid="625"/>
   <tile gid="625"/>
   <tile gid="625"/>
   <tile gid="625"/>
   <tile gid="625"/>
   <tile gid="625"/>
   <tile gid="625"/>
   <tile gid="625"/>
   <tile gid="625"/>
   <tile gid="625"/>
   <tile gid="45"/>
   <tile gid="45"/>
   <tile gid="45"/>
   <tile gid="45"/>
   <tile gid="45"/>
   <tile gid="45"/>
   <tile gid="45"/>
   <tile gid="45"/>
   <tile gid="45"/>
   <tile gid="45"/>
   <tile gid="642"/>
   <tile gid="643"/>
   <tile gid="644"/>
   <tile gid="527"/>
   <tile gid="12"/>
   <tile gid="12"/>
   <tile gid="12"/>
   <tile gid="12"/>
   <tile gid="12"/>
   <tile gid="12"/>
   <tile gid="12"/>
   <tile gid="12"/>
   <tile gid="12"/>
   <tile gid="12"/>
   <tile gid="12"/>
   <tile gid="12"/>
   <tile gid="12"/>
   <tile gid="12"/>
   <tile gid="12"/>
   <tile gid="12"/>
   <tile gid="12"/>
   <tile gid="12"/>
   <tile gid="12"/>
   <tile gid="12"/>
   <tile gid="12"/>
   <tile gid="12"/>
   <tile gid="12"/>
   <tile gid="12"/>
   <tile gid="12"/>
   <tile gid="12"/>
   <tile gid="12"/>
   <tile gid="12"/>
   <tile gid="12"/>
   <tile gid="12"/>
   <tile gid="12"/>
   <tile gid="12"/>
   <tile gid="12"/>
   <tile gid="12"/>
   <tile gid="12"/>
   <tile gid="12"/>
   <tile gid="12"/>
   <tile gid="12"/>
   <tile gid="12"/>
   <tile gid="12"/>
   <tile gid="12"/>
   <tile gid="12"/>
   <tile gid="12"/>
   <tile gid="12"/>
   <tile gid="12"/>
   <tile gid="12"/>
   <tile gid="12"/>
   <tile gid="12"/>
   <tile gid="12"/>
   <tile gid="12"/>
  </data>
 </layer>
 <objectgroup name="Объекты">
  <object id="1" name="coin" gid="34" x="30.6667" y="51.6667" width="16" height="16"/>
  <object id="2" name="coin" gid="34" x="147.667" y="139.667" width="16" height="16"/>
  <object id="3" name="block" x="0" y="144" width="800" height="16"/>
  <object id="4" name="player" gid="274" x="64.6667" y="143.333" width="16" height="16"/>
  <object id="5" name="block" x="95.6667" y="96" width="48" height="8"/>
  <object id="6" name="block" x="16" y="64" width="48" height="8"/>
  <object id="7" name="coin" gid="427" x="470.667" y="142.667" width="16" height="16"/>
  <object id="8" name="block" x="0" y="0" width="16" height="160"/>
  <object id="9" name="block" x="0" y="0" width="800" height="16"/>
  <object id="10" name="block" x="784" y="0" width="16" height="160"/>
  <object id="11" name="block" x="244" y="111.333" width="40" height="32"/>
  <object id="12" name="coin" gid="34" x="113.333" y="92.3333" width="16" height="16"/>
  <object id="13" name="coin" gid="151" x="386" y="112.333" width="16" height="16"/>
  <object id="14" name="block" x="560" y="16" width="224" height="16"/>
  <object id="15" name="block" x="560" y="32" width="16" height="80"/>
  <object id="16" name="enemy" gid="217" x="256" y="110" width="16" height="16"/>
  <object id="17" name="enemy" gid="217" x="350" y="139.333" width="16" height="16"/>
  <object id="18" name="enemy" gid="217" x="182" y="87.6667" width="16" height="16"/>
  <object id="19" name="enemy" gid="217" x="542.333" y="112.667" width="16" height="16"/>
  <object id="20" name="coin" gid="34" x="751" y="90" width="16" height="16"/>
  <object id="21" name="coin" gid="34" x="650" y="77" width="16" height="16"/>
  <object id="22" name="coin" gid="34" x="698" y="99" width="16" height="16"/>
  <object id="23" name="block" x="736" y="96" width="48" height="48"/>
  <object id="24" name="enemy" gid="31" x="610" y="97.3333" width="16" height="16"/>
  <object id="25" name="block" x="0.666667" y="147" width="799.333" height="12.6667"/>
 </objectgroup>
 <layer name="Слой тайлов 2" width="50" height="10" opacity="0.5">
  <data>
   <tile gid="0"/>
   <tile gid="0"/>
   <tile gid="0"/>
   <tile gid="0"/>
   <tile gid="0"/>
   <tile gid="0"/>
   <tile gid="0"/>
   <tile gid="0"/>
   <tile gid="0"/>
   <tile gid="0"/>
   <tile gid="0"/>
   <tile gid="0"/>
   <tile gid="0"/>
   <tile gid="0"/>
   <tile gid="0"/>
   <tile gid="0"/>
   <tile gid="0"/>
   <tile gid="0"/>
   <tile gid="0"/>
   <tile gid="0"/>
   <tile gid="0"/>
   <tile gid="0"/>
   <tile gid="0"/>
   <tile gid="0"/>
   <tile gid="0"/>
   <tile gid="0"/>
   <tile gid="0"/>
   <tile gid="0"/>
   <tile gid="0"/>
   <tile gid="0"/>
   <tile gid="0"/>
   <tile gid="0"/>
   <tile gid="0"/>
   <tile gid="0"/>
   <tile gid="0"/>
   <tile gid="0"/>
   <tile gid="0"/>
   <tile gid="0"/>
   <tile gid="0"/>
   <tile gid="0"/>
   <tile gid="0"/>
   <tile gid="0"/>
   <tile gid="0"/>
   <tile gid="0"/>
   <tile gid="0"/>
   <tile gid="0"/>
   <tile gid="0"/>
   <tile gid="0"/>
   <tile gid="0"/>
   <tile gid="0"/>
   <tile gid="0"/>
   <tile gid="0"/>
   <tile gid="0"/>
   <tile gid="0"/>
   <tile gid="0"/>
   <tile gid="0"/>
   <tile gid="0"/>
   <tile gid="0"/>
   <tile gid="0"/>
   <tile gid="0"/>
   <tile gid="0"/>
   <tile gid="0"/>
   <tile gid="0"/>
   <tile gid="0"/>
   <tile gid="0"/>
   <tile gid="0"/>
   <tile gid="0"/>
   <tile gid="0"/>
   <tile gid="0"/>
   <tile gid="0"/>
   <tile gid="0"/>
   <tile gid="0"/>
   <tile gid="0"/>
   <tile gid="0"/>
   <tile gid="0"/>
   <tile gid="0"/>
   <tile gid="0"/>
   <tile gid="0"/>
   <tile gid="0"/>
   <tile gid="0"/>
   <tile gid="0"/>
   <tile gid="0"/>
   <tile gid="0"/>
   <tile gid="0"/>
   <tile gid="0"/>
   <tile gid="0"/>
   <tile gid="0"/>
   <tile gid="0"/>
   <tile gid="0"/>
   <tile gid="0"/>
   <tile gid="0"/>
   <tile gid="0"/>
   <tile gid="0"/>
   <tile gid="0"/>
   <tile gid="0"/>
   <tile gid="0"/>
   <tile gid="0"/>
   <tile gid="0"/>
   <tile gid="0"/>
   <tile gid="0"/>
   <tile gid="0"/>
   <tile gid="0"/>
   <tile gid="0"/>
   <tile gid="0"/>
   <tile gid="0"/>
   <tile gid="0"/>
   <tile gid="0"/>
   <tile gid="0"/>
   <tile gid="0"/>
   <tile gid="0"/>
   <tile gid="0"/>
   <tile gid="0"/>
   <tile gid="0"/>
   <tile gid="0"/>
   <tile gid="0"/>
   <tile gid="0"/>
   <tile gid="0"/>
   <tile gid="0"/>
   <tile gid="0"/>
   <tile gid="0"/>
   <tile gid="0"/>
   <tile gid="0"/>
   <tile gid="0"/>
   <tile gid="0"/>
   <tile gid="0"/>
   <tile gid="0"/>
   <tile gid="0"/>
   <tile gid="0"/>
   <tile gid="0"/>
   <tile gid="0"/>
   <tile gid="0"/>
   <tile gid="0"/>
   <tile gid="0"/>
   <tile gid="0"/>
   <tile gid="0"/>
   <tile gid="0"/>
   <tile gid="123"/>
   <tile gid="123"/>
   <tile gid="123"/>
   <tile gid="123"/>
   <tile gid="123"/>
   <tile gid="123"/>
   <tile gid="123"/>
   <tile gid="123"/>
   <tile gid="123"/>
   <tile gid="123"/>
   <tile gid="123"/>
   <tile gid="123"/>
   <tile gid="123"/>
   <tile gid="0"/>
   <tile gid="0"/>
   <tile gid="0"/>
   <tile gid="0"/>
   <tile gid="0"/>
   <tile gid="0"/>
   <tile gid="0"/>
   <tile gid="0"/>
   <tile gid="0"/>
   <tile gid="0"/>
   <tile gid="0"/>
   <tile gid="0"/>
   <tile gid="0"/>
   <tile gid="0"/>
   <tile gid="0"/>
   <tile gid="0"/>
   <tile gid="0"/>
   <tile gid="0"/>
   <tile gid="0"/>
   <tile gid="0"/>
   <tile gid="0"/>
   <tile gid="0"/>
   <tile gid="0"/>
   <tile gid="0"/>
   <tile gid="0"/>
   <tile gid="0"/>
   <tile gid="0"/>
   <tile gid="0"/>
   <tile gid="0"/>
   <tile gid="0"/>
   <tile gid="0"/>
   <tile gid="0"/>
   <tile gid="0"/>
   <tile gid="0"/>
   <tile gid="0"/>
   <tile gid="0"/>
   <tile gid="0"/>
   <tile gid="123"/>
   <tile gid="123"/>
   <tile gid="123"/>
   <tile gid="123"/>
   <tile gid="123"/>
   <tile gid="123"/>
   <tile gid="123"/>
   <tile gid="123"/>
   <tile gid="123"/>
   <tile gid="123"/>
   <tile gid="123"/>
   <tile gid="123"/>
   <tile gid="123"/>
   <tile gid="0"/>
   <tile gid="0"/>
   <tile gid="0"/>
   <tile gid="0"/>
   <tile gid="0"/>
   <tile gid="0"/>
   <tile gid="0"/>
   <tile gid="0"/>
   <tile gid="0"/>
   <tile gid="0"/>
   <tile gid="0"/>
   <tile gid="0"/>
   <tile gid="0"/>
   <tile gid="0"/>
   <tile gid="0"/>
   <tile gid="0"/>
   <tile gid="0"/>
   <tile gid="0"/>
   <tile gid="0"/>
   <tile gid="0"/>
   <tile gid="0"/>
   <tile gid="0"/>
   <tile gid="0"/>
   <tile gid="0"/>
   <tile gid="0"/>
   <tile gid="0"/>
   <tile gid="0"/>
   <tile gid="0"/>
   <tile gid="0"/>
   <tile gid="0"/>
   <tile gid="0"/>
   <tile gid="0"/>
   <tile gid="0"/>
   <tile gid="0"/>
   <tile gid="0"/>
   <tile gid="0"/>
   <tile gid="0"/>
   <tile gid="123"/>
   <tile gid="123"/>
   <tile gid="123"/>
   <tile gid="123"/>
   <tile gid="123"/>
   <tile gid="123"/>
   <tile gid="123"/>
   <tile gid="123"/>
   <tile gid="123"/>
   <tile gid="123"/>
   <tile gid="123"/>
   <tile gid="123"/>
   <tile gid="123"/>
   <tile gid="0"/>
   <tile gid="0"/>
   <tile gid="0"/>
   <tile gid="0"/>
   <tile gid="0"/>
   <tile gid="0"/>
   <tile gid="0"/>
   <tile gid="0"/>
   <tile gid="0"/>
   <tile gid="0"/>
   <tile gid="0"/>
   <tile gid="0"/>
   <tile gid="0"/>
   <tile gid="0"/>
   <tile gid="0"/>
   <tile gid="0"/>
   <tile gid="0"/>
   <tile gid="0"/>
   <tile gid="0"/>
   <tile gid="0"/>
   <tile gid="0"/>
   <tile gid="0"/>
   <tile gid="0"/>
   <tile gid="0"/>
   <tile gid="0"/>
   <tile gid="0"/>
   <tile gid="0"/>
   <tile gid="0"/>
   <tile gid="0"/>
   <tile gid="0"/>
   <tile gid="0"/>
   <tile gid="0"/>
   <tile gid="0"/>
   <tile gid="0"/>
   <tile gid="0"/>
   <tile gid="0"/>
   <tile gid="0"/>
   <tile gid="123"/>
   <tile gid="123"/>
   <tile gid="123"/>
   <tile gid="123"/>
   <tile gid="123"/>
   <tile gid="123"/>
   <tile gid="123"/>
   <tile gid="123"/>
   <tile gid="123"/>
   <tile gid="123"/>
   <tile gid="123"/>
   <tile gid="123"/>
   <tile gid="123"/>
   <tile gid="0"/>
   <tile gid="0"/>
   <tile gid="0"/>
   <tile gid="0"/>
   <tile gid="0"/>
   <tile gid="0"/>
   <tile gid="0"/>
   <tile gid="0"/>
   <tile gid="0"/>
   <tile gid="0"/>
   <tile gid="0"/>
   <tile gid="0"/>
   <tile gid="0"/>
   <tile gid="0"/>
   <tile gid="0"/>
   <tile gid="0"/>
   <tile gid="0"/>
   <tile gid="0"/>
   <tile gid="0"/>
   <tile gid="0"/>
   <tile gid="0"/>
   <tile gid="0"/>
   <tile gid="0"/>
   <tile gid="0"/>
   <tile gid="0"/>
   <tile gid="0"/>
   <tile gid="0"/>
   <tile gid="0"/>
   <tile gid="0"/>
   <tile gid="0"/>
   <tile gid="0"/>
   <tile gid="0"/>
   <tile gid="0"/>
   <tile gid="0"/>
   <tile gid="0"/>
   <tile gid="0"/>
   <tile gid="0"/>
   <tile gid="123"/>
   <tile gid="123"/>
   <tile gid="123"/>
   <tile gid="123"/>
   <tile gid="123"/>
   <tile gid="123"/>
   <tile gid="123"/>
   <tile gid="123"/>
   <tile gid="123"/>
   <tile gid="123"/>
   <tile gid="123"/>
   <tile gid="123"/>
   <tile gid="123"/>
   <tile gid="0"/>
   <tile gid="0"/>
   <tile gid="0"/>
   <tile gid="0"/>
   <tile gid="0"/>
   <tile gid="0"/>
   <tile gid="0"/>
   <tile gid="0"/>
   <tile gid="0"/>
   <tile gid="0"/>
   <tile gid="0"/>
   <tile gid="0"/>
   <tile gid="0"/>
   <tile gid="0"/>
   <tile gid="0"/>
   <tile gid="0"/>
   <tile gid="0"/>
   <tile gid="0"/>
   <tile gid="0"/>
   <tile gid="0"/>
   <tile gid="0"/>
   <tile gid="0"/>
   <tile gid="0"/>
   <tile gid="0"/>
   <tile gid="0"/>
   <tile gid="0"/>
   <tile gid="0"/>
   <tile gid="0"/>
   <tile gid="0"/>
   <tile gid="0"/>
   <tile gid="0"/>
   <tile gid="0"/>
   <tile gid="0"/>
   <tile gid="0"/>
   <tile gid="0"/>
   <tile gid="0"/>
   <tile gid="0"/>
   <tile gid="123"/>
   <tile gid="123"/>
   <tile gid="123"/>
   <tile gid="123"/>
   <tile gid="123"/>
   <tile gid="123"/>
   <tile gid="123"/>
   <tile gid="123"/>
   <tile gid="123"/>
   <tile gid="123"/>
   <tile gid="123"/>
   <tile gid="123"/>
   <tile gid="123"/>
   <tile gid="0"/>
   <tile gid="0"/>
   <tile gid="0"/>
   <tile gid="0"/>
   <tile gid="0"/>
   <tile gid="0"/>
   <tile gid="0"/>
   <tile gid="0"/>
   <tile gid="0"/>
   <tile gid="0"/>
   <tile gid="0"/>
   <tile gid="0"/>
   <tile gid="0"/>
   <tile gid="0"/>
   <tile gid="0"/>
   <tile gid="0"/>
   <tile gid="0"/>
   <tile gid="0"/>
   <tile gid="0"/>
   <tile gid="0"/>
   <tile gid="0"/>
   <tile gid="0"/>
   <tile gid="0"/>
   <tile gid="0"/>
   <tile gid="0"/>
   <tile gid="0"/>
   <tile gid="0"/>
   <tile gid="0"/>
   <tile gid="0"/>
   <tile gid="0"/>
   <tile gid="0"/>
   <tile gid="0"/>
   <tile gid="0"/>
   <tile gid="0"/>
   <tile gid="0"/>
   <tile gid="0"/>
   <tile gid="0"/>
   <tile gid="123"/>
   <tile gid="123"/>
   <tile gid="123"/>
   <tile gid="123"/>
   <tile gid="123"/>
   <tile gid="123"/>
   <tile gid="123"/>
   <tile gid="123"/>
   <tile gid="123"/>
   <tile gid="123"/>
   <tile gid="123"/>
   <tile gid="123"/>
   <tile gid="123"/>
   <tile gid="0"/>
   <tile gid="0"/>
   <tile gid="0"/>
   <tile gid="0"/>
   <tile gid="0"/>
   <tile gid="0"/>
   <tile gid="0"/>
   <tile gid="0"/>
   <tile gid="0"/>
   <tile gid="0"/>
   <tile gid="0"/>
   <tile gid="0"/>
   <tile gid="0"/>
   <tile gid="0"/>
   <tile gid="0"/>
   <tile gid="0"/>
   <tile gid="0"/>
   <tile gid="0"/>
   <tile gid="0"/>
   <tile gid="0"/>
   <tile gid="0"/>
   <tile gid="0"/>
   <tile gid="0"/>
   <tile gid="0"/>
   <tile gid="0"/>
   <tile gid="0"/>
   <tile gid="0"/>
   <tile gid="0"/>
   <tile gid="0"/>
   <tile gid="0"/>
   <tile gid="0"/>
   <tile gid="0"/>
   <tile gid="0"/>
   <tile gid="0"/>
   <tile gid="0"/>
   <tile gid="0"/>
   <tile gid="0"/>
   <tile gid="0"/>
   <tile gid="0"/>
   <tile gid="0"/>
   <tile gid="0"/>
   <tile gid="0"/>
   <tile gid="0"/>
   <tile gid="0"/>
   <tile gid="0"/>
   <tile gid="0"/>
   <tile gid="0"/>
   <tile gid="0"/>
   <tile gid="0"/>
   <tile gid="0"/>
   <tile gid="0"/>
  </data>
 </layer>
</map>
